gama.ui.shared/icons_svg/dark/layer/layer.selection.svg

<svg height="25" viewBox="-670.483 -3651.322 25 25" width="25" xmlns="http://www.w3.org/2000/svg"><g fill="none"><circle cx="-657.983" cy="-3638.822" fill="#666" r="12"/><circle cx="-657.983" cy="-3638.822" r="12" stroke="#fff" stroke-linecap="round" stroke-linejoin="round" stroke-width=".25"/><path d="m-652.7454-3634.1496 2.1406 2.1406c.1627.1627.1627.4265 0 .5892-.16275.1628-.4266.1628-.5893 0l-2.1406-2.1406-1.3847 2.0771c-.1884.2826-.6176.2333-.73684-.0847l-2.49996-6.6667c-.1256-.335.20146-.6621.5364-.5363l6.66664 2.5c.318.119.36741.5483.08486.7366zm-.878-.4164 1.816-1.2105-5.0467-1.8925 1.8925 5.0467 1.2107-1.8161c.016-.025.03494-.0486.0568-.0706.0219-.022.0456-.041.0707-.057zm-9.776-11.7317c.2301 0 .4167.1867.4167.4167s-.1866.4167-.4167.4167c-.69035 0-1.25.5596-1.25 1.25 0 .2301-.18654.4166-.41666.4166-.23014 0-.41664-.1865-.41664-.4166 0-1.1507.9327-2.0834 2.0833-2.0834zm2.5.8334c-.2301 0-.4167-.1867-.4167-.4167s.1866-.4167.4167-.4167h1.66665c.23015 0 .41665.1867.41665.4167s-.1865.4167-.41665.4167zm4.1666 0c-.2301 0-.4166-.1867-.4166-.4167s.1865-.4167.4166-.4167h1.6667c.2301 0 .41666.1867.41666.4167s-.18656.4167-.41666.4167zm-4.1666 14.1666c-.2301 0-.4167-.1866-.4167-.4167s.1866-.4166.4167-.4166h1.66665c.23015 0 .41665.1865.41665.4166s-.1865.4167-.41665.4167zm-4.5833-10.4167c0-.2301.1865-.4166.41664-.4166.23012 0 .41666.1865.41666.4166v1.6667c0 .2301-.18654.4167-.41666.4167-.23014 0-.41664-.1866-.41664-.4167zm0 4.1667c0-.2303.1865-.4167.41664-.4167.23012 0 .41666.1864.41666.4167v1.6667c0 .23-.18654.4166-.41666.4166-.23014 0-.41664-.1866-.41664-.4166zm0 4.1667c0-.23.1865-.4167.41664-.4167.23012 0 .41666.1867.41666.4167 0 .6903.55965 1.25 1.25 1.25.2301 0 .4167.1865.4167.4166s-.1866.4167-.4167.4167c-1.1506 0-2.0833-.9328-2.0833-2.0833zm14.9999-6.6667c0 .2301-.18654.4167-.41666.4167-.23014 0-.41664-.1866-.41664-.4167v-1.6667c0-.2301.1865-.4166.41664-.4166.23012 0 .41666.1865.41666.4166zm0-4.1666c0 .2301-.18654.4166-.41666.4166-.23014 0-.41664-.1865-.41664-.4166 0-.6904-.5597-1.25-1.25-1.25-.2301 0-.4167-.1867-.4167-.4167s.1866-.4167.4167-.4167c1.1506 0 2.0833.9327 2.0833 2.0834z" fill="#c0e0ff"/></g></svg>

<?xml version="1.0" encoding="UTF-8" standalone="no"?>
<!DOCTYPE svg PUBLIC "-//W3C//DTD SVG 1.1//EN" "http://www.w3.org/Graphics/SVG/1.1/DTD/svg11.dtd">
<svg xmlns="http://www.w3.org/2000/svg" xmlns:xl="http://www.w3.org/1999/xlink" version="1.1" xmlns:dc="http://purl.org/dc/elements/1.1/" viewBox="-670.4827 -3651.3223 24.999996 25" width="24.999996" height="25">
  <defs/>
  <g id="SOURCES" stroke-opacity="1" fill="none" stroke="none" fill-opacity="1" stroke-dasharray="none">
    <title>SOURCES</title>
    <g id="SOURCES_Dark">
      <title>Dark</title>
      <g id="Graphic_11577">
        <circle cx="-657.9827" cy="-3638.8223" r="12.000018268838" fill="#666"/>
        <circle cx="-657.9827" cy="-3638.8223" r="12.000018268838" stroke="white" stroke-linecap="round" stroke-linejoin="round" stroke-width=".25"/>
      </g>
      <g id="Graphic_11576">
        <path d="M -652.7454 -3634.1496 L -650.6048 -3632.009 C -650.4421 -3631.8463 -650.4421 -3631.5825 -650.6048 -3631.4198 C -650.76755 -3631.257 -651.0314 -3631.257 -651.1941 -3631.4198 L -653.3347 -3633.5604 L -654.7194 -3631.4833 C -654.9078 -3631.2007 -655.337 -3631.25 -655.45624 -3631.568 L -657.9562 -3638.2347 C -658.0818 -3638.5697 -657.75474 -3638.8968 -657.4198 -3638.771 L -650.75316 -3636.271 C -650.43516 -3636.152 -650.38575 -3635.7227 -650.6683 -3635.5344 L -652.7454 -3634.1496 Z M -653.6234 -3634.566 L -651.8074 -3635.7765 L -656.8541 -3637.669 L -654.9616 -3632.6223 L -653.7509 -3634.4384 C -653.7349 -3634.4634 -653.71596 -3634.487 -653.6941 -3634.509 C -653.6722 -3634.531 -653.6485 -3634.55 -653.6234 -3634.566 Z M -663.3994 -3646.2977 C -663.1693 -3646.2977 -662.9827 -3646.111 -662.9827 -3645.881 C -662.9827 -3645.651 -663.1693 -3645.4643 -663.3994 -3645.4643 C -664.08975 -3645.4643 -664.6494 -3644.9047 -664.6494 -3644.2143 C -664.6494 -3643.9842 -664.83594 -3643.7977 -665.06606 -3643.7977 C -665.2962 -3643.7977 -665.4827 -3643.9842 -665.4827 -3644.2143 C -665.4827 -3645.365 -664.55 -3646.2977 -663.3994 -3646.2977 Z M -660.8994 -3645.4643 C -661.1295 -3645.4643 -661.3161 -3645.651 -661.3161 -3645.881 C -661.3161 -3646.111 -661.1295 -3646.2977 -660.8994 -3646.2977 L -659.23275 -3646.2977 C -659.0026 -3646.2977 -658.8161 -3646.111 -658.8161 -3645.881 C -658.8161 -3645.651 -659.0026 -3645.4643 -659.23275 -3645.4643 Z M -656.7328 -3645.4643 C -656.9629 -3645.4643 -657.1494 -3645.651 -657.1494 -3645.881 C -657.1494 -3646.111 -656.9629 -3646.2977 -656.7328 -3646.2977 L -655.0661 -3646.2977 C -654.836 -3646.2977 -654.64944 -3646.111 -654.64944 -3645.881 C -654.64944 -3645.651 -654.836 -3645.4643 -655.0661 -3645.4643 Z M -660.8994 -3631.2977 C -661.1295 -3631.2977 -661.3161 -3631.4843 -661.3161 -3631.7144 C -661.3161 -3631.9445 -661.1295 -3632.131 -660.8994 -3632.131 L -659.23275 -3632.131 C -659.0026 -3632.131 -658.8161 -3631.9445 -658.8161 -3631.7144 C -658.8161 -3631.4843 -659.0026 -3631.2977 -659.23275 -3631.2977 Z M -665.4827 -3641.7144 C -665.4827 -3641.9445 -665.2962 -3642.131 -665.06606 -3642.131 C -664.83594 -3642.131 -664.6494 -3641.9445 -664.6494 -3641.7144 L -664.6494 -3640.0477 C -664.6494 -3639.8176 -664.83594 -3639.631 -665.06606 -3639.631 C -665.2962 -3639.631 -665.4827 -3639.8176 -665.4827 -3640.0477 Z M -665.4827 -3637.5477 C -665.4827 -3637.778 -665.2962 -3637.9644 -665.06606 -3637.9644 C -664.83594 -3637.9644 -664.6494 -3637.778 -664.6494 -3637.5477 L -664.6494 -3635.881 C -664.6494 -3635.651 -664.83594 -3635.4644 -665.06606 -3635.4644 C -665.2962 -3635.4644 -665.4827 -3635.651 -665.4827 -3635.881 Z M -665.4827 -3633.381 C -665.4827 -3633.611 -665.2962 -3633.7977 -665.06606 -3633.7977 C -664.83594 -3633.7977 -664.6494 -3633.611 -664.6494 -3633.381 C -664.6494 -3632.6907 -664.08975 -3632.131 -663.3994 -3632.131 C -663.1693 -3632.131 -662.9827 -3631.9445 -662.9827 -3631.7144 C -662.9827 -3631.4843 -663.1693 -3631.2977 -663.3994 -3631.2977 C -664.55 -3631.2977 -665.4827 -3632.2305 -665.4827 -3633.381 Z M -650.4828 -3640.0477 C -650.4828 -3639.8176 -650.66934 -3639.631 -650.89946 -3639.631 C -651.1296 -3639.631 -651.3161 -3639.8176 -651.3161 -3640.0477 L -651.3161 -3641.7144 C -651.3161 -3641.9445 -651.1296 -3642.131 -650.89946 -3642.131 C -650.66934 -3642.131 -650.4828 -3641.9445 -650.4828 -3641.7144 Z M -650.4828 -3644.2143 C -650.4828 -3643.9842 -650.66934 -3643.7977 -650.89946 -3643.7977 C -651.1296 -3643.7977 -651.3161 -3643.9842 -651.3161 -3644.2143 C -651.3161 -3644.9047 -651.8758 -3645.4643 -652.5661 -3645.4643 C -652.7962 -3645.4643 -652.9828 -3645.651 -652.9828 -3645.881 C -652.9828 -3646.111 -652.7962 -3646.2977 -652.5661 -3646.2977 C -651.4155 -3646.2977 -650.4828 -3645.365 -650.4828 -3644.2143 Z" fill="#c0e0ff"/>
      </g>
    </g>
  </g>
</svg>
